X: 13
T: Lakes Of Sligo, The
Z: Jeremy
S: https://thesession.org/tunes/393#setting51150
R: polka
M: 2/4
L: 1/8
K: Dmaj
|:FA AB/c/|d>c BA|B>A (3Bcd|e2 ef|
FA AB/c/|de f>e|dB Af|e2 d2:|
|:fa d>e|fa a2|gb e>f|gb ba/g/|
fa ef|de f>e|dB Af|e2 d2:|

%-------------------- TUNE SEPARATOR --------------------%

